assets/svg/rss.svg

<svg role="img" viewBox="0 0 24 24" fill="#fff" xmlns="http://www.w3.org/2000/svg"><title>RSS icon</title><path d="M19.199 24C19.199 13.467 10.533 4.8 0 4.8V0c13.165 0 24 10.835 24 24h-4.801zM3.291 17.415c1.814 0 3.293 1.479 3.293 3.295 0 1.813-1.485 3.29-3.301 3.29C1.47 24 0 22.526 0 20.71s1.475-3.294 3.291-3.295zM15.909 24h-4.665c0-6.169-5.075-11.245-11.244-11.245V8.09c8.727 0 15.909 7.184 15.909 15.91z"/></svg>

<?xml version="1.0" encoding="UTF-8" standalone="no"?>
<!DOCTYPE svg PUBLIC "-//W3C//DTD SVG 1.1//EN" "http://www.w3.org/Graphics/SVG/1.1/DTD/svg11.dtd">
<svg width="100%" height="100%" viewBox="0 0 1000 300" version="1.1" xmlns="http://www.w3.org/2000/svg" xmlns:xlink="http://www.w3.org/1999/xlink" xml:space="preserve" xmlns:serif="http://www.serif.com/" style="fill-rule:evenodd;clip-rule:evenodd;stroke-linejoin:round;stroke-miterlimit:2;">
    <g transform="matrix(12.4253,0,0,12.4253,59.8995,1.79268)">
        <path d="M19.199,24C19.199,13.467 10.533,4.8 0,4.8L0,0C13.165,0 24,10.835 24,24L19.199,24ZM3.291,17.415C5.105,17.415 6.584,18.894 6.584,20.71C6.584,22.523 5.099,24 3.283,24C1.47,24 0,22.526 0,20.71C0,18.894 1.475,17.416 3.291,17.415ZM15.909,24L11.244,24C11.244,17.831 6.169,12.755 0,12.755L0,8.09C8.727,8.09 15.909,15.274 15.909,24Z" style="fill:white;fill-rule:nonzero;"/>
    </g>
    <g transform="matrix(1,0,0,1,-105.1,79.2295)">
        <text x="516.433px" y="172.578px" style="font-family:'RalewayRoman-Black', 'Raleway';font-weight:100;font-size:288px;fill:white;">RSS</text>
    </g>
</svg>
